X:661
T:Road to the Glen, The
R:reel
C:Ed Reavy (1898-1988)
Z:id:hn-reel-661
M:C|
K:Ddor
DE |: FdcB ADFD | G2dG BGdG | F2cF Acde | fedc ABcA | 
~d3e f2ag | fedc AFDE |1 FEFG AGFG | Addc d2DE :|2 FEFG A2DE | FDEC D2de ||
|: f2ag fedf | ec~c2 Gceg | f2ag fede |1 fdec Adde |
f2fg gffe | fedc AFDE | FEFG AGFG | Addc d2de :|2 fdec Addc |
d2~d2 Adfd | gc~c2 acgc | agfe dcAG | FDEC D2 ||
P:variations
DE |: FdcB ADFD | G2dG eGdG | F2cF Acde | fdec ABcA | 
~d3e f2ag | fedc AFDE |1 FEFG AGFG | Addc d2DE :|2 FEFG A2DE | FDEC D2de ||
|: f2ag fedf | ecgc aceg | f2ag fede |1 fedc Adde |
fefg (3agf (3gfe | fedc AFDE | FEFG AGFG | Addc d2de :|2 fdec Addc |
d2fd Adfd | gccg acgc | afge dcAG | FDEC D2 ||

